dist/img/icons/main/advantages/compass.svg

<svg width="70" height="70" viewBox="0 0 70 70" fill="none" xmlns="http://www.w3.org/2000/svg">
<path d="M35 9.33325C18.2747 9.33325 4.66666 22.9413 4.66666 39.6666C4.66666 56.3931 18.2747 69.9999 35 69.9999C51.7265 69.9999 65.3334 56.3931 65.3334 39.6665C65.3334 22.9411 51.7265 9.33325 35 9.33325ZM35 67.6665C19.5615 67.6665 7.00004 55.105 7.00004 39.6665C7.00004 24.2279 19.5615 11.6665 35 11.6665C50.4386 11.6665 63 24.2279 63 39.6665C63 55.105 50.4386 67.6665 35 67.6665Z" fill="#007AFF"/>
<path d="M35 15.1666C21.49 15.1666 10.5 26.1566 10.5 39.6666C10.5 53.1754 21.49 64.1666 35 64.1666C48.5088 64.1666 59.5 53.1754 59.5 39.6666C59.5 26.1566 48.5088 15.1666 35 15.1666ZM35 61.8334C22.7768 61.8334 12.8334 51.8898 12.8334 39.6668C12.8334 27.4437 22.7768 17.5 35 17.5C47.2232 17.5 57.1667 27.4436 57.1667 39.6666C57.1667 51.8897 47.2232 61.8334 35 61.8334Z" fill="#007AFF"/>
<path d="M35 0C31.7835 0 29.1666 2.6168 29.1666 5.83338C29.1666 9.04982 31.7834 11.6668 35 11.6668C38.2164 11.6668 40.8334 9.04996 40.8334 5.83338C40.8334 2.6168 38.2164 0 35 0ZM35 9.33338C33.0703 9.33338 31.5 7.76303 31.5 5.83338C31.5 3.90373 33.0703 2.33338 35 2.33338C36.9296 2.33338 38.5 3.90373 38.5 5.83338C38.5 7.76303 36.9296 9.33338 35 9.33338Z" fill="#007AFF"/>
<path d="M32.3235 35.3391L30.6736 36.989L37.6733 43.9887L39.3232 42.3387L32.3235 35.3391Z" fill="#007AFF"/>
<path d="M47.4904 27.1739C47.124 26.8087 46.5616 26.7282 46.1125 26.9721L30.9459 35.1387C30.7452 35.2473 30.5807 35.4118 30.4722 35.6136L22.3055 50.7802C22.0605 51.234 22.1422 51.7929 22.5073 52.158C22.7325 52.382 23.0311 52.4998 23.3334 52.4998C23.5223 52.4998 23.7125 52.4543 23.8852 52.3598L39.0518 44.1932C39.2536 44.0847 39.4182 43.9202 39.5266 43.7184L47.6933 28.5518C47.9372 28.098 47.8555 27.538 47.4904 27.1739ZM37.639 42.3057L26.2045 48.4621L32.3609 37.0276L43.7954 30.8712L37.639 42.3057Z" fill="#007AFF"/>
<path d="M36.1667 16.3338H33.8334V22.1672H36.1667V16.3338Z" fill="#007AFF"/>
<path d="M36.1667 57.1669H33.8334V63.0002H36.1667V57.1669Z" fill="#007AFF"/>
<path d="M17.5 38.4999H11.6666V40.8332H17.5V38.4999Z" fill="#007AFF"/>
<path d="M58.3334 38.4999H52.5V40.8332H58.3334V38.4999Z" fill="#007AFF"/>
<path d="M19.488 22.5091L17.8382 24.1589L21.3384 27.6592L22.9883 26.0094L19.488 22.5091Z" fill="#007AFF"/>
<path d="M48.6574 51.6759L47.0075 53.3258L50.5077 56.8261L52.1577 55.1761L48.6574 51.6759Z" fill="#007AFF"/>
<path d="M50.5069 22.5086L48.174 24.8416L49.8239 26.4915L52.1569 24.1586L50.5069 22.5086Z" fill="#007AFF"/>
<path d="M20.1794 52.8414L17.8465 55.1743L19.4964 56.8242L21.8294 54.4913L20.1794 52.8414Z" fill="#007AFF"/>
</svg>

<svg width="70" height="70" fill="none" xmlns="http://www.w3.org/2000/svg"><path d="M35 9.333c-16.725 0-30.333 13.608-30.333 30.334S18.275 70 35 70c16.727 0 30.333-13.607 30.333-30.334C65.333 22.941 51.727 9.334 35 9.334zm0 58.334c-15.439 0-28-12.562-28-28 0-15.44 12.561-28 28-28s28 12.56 28 28c0 15.438-12.561 28-28 28z" fill="#007AFF"/><path d="M35 15.167c-13.51 0-24.5 10.99-24.5 24.5 0 13.508 10.99 24.5 24.5 24.5 13.509 0 24.5-10.992 24.5-24.5 0-13.51-10.991-24.5-24.5-24.5zm0 46.666c-12.223 0-22.167-9.943-22.167-22.166S22.777 17.5 35 17.5s22.167 9.944 22.167 22.167S47.223 61.833 35 61.833zM35 0a5.84 5.84 0 00-5.833 5.833A5.84 5.84 0 0035 11.667a5.84 5.84 0 005.833-5.834A5.84 5.84 0 0035 0zm0 9.333c-1.93 0-3.5-1.57-3.5-3.5s1.57-3.5 3.5-3.5 3.5 1.57 3.5 3.5-1.57 3.5-3.5 3.5z" fill="#007AFF"/><path d="M32.324 35.34l-1.65 1.649 7 7 1.65-1.65-7-7z" fill="#007AFF"/><path d="M47.49 27.174a1.167 1.167 0 00-1.378-.202L30.946 35.14c-.2.108-.365.273-.474.475L22.305 50.78a1.164 1.164 0 001.028 1.72c.19 0 .38-.046.552-.14l15.167-8.167c.202-.108.366-.273.475-.475l8.166-15.166a1.166 1.166 0 00-.203-1.378zm-9.85 15.132l-11.435 6.156 6.157-11.434 11.434-6.157-6.156 11.435zm-1.473-25.972h-2.334v5.833h2.334v-5.833zm0 40.833h-2.334V63h2.334v-5.833zM17.5 38.5h-5.833v2.333H17.5V38.5zm40.833 0H52.5v2.333h5.833V38.5zM19.488 22.51l-1.65 1.649 3.5 3.5 1.65-1.65-3.5-3.5zm29.169 29.166l-1.65 1.65 3.5 3.5 1.65-1.65-3.5-3.5zm1.85-29.167l-2.333 2.333 1.65 1.65 2.333-2.333-1.65-1.65zM20.18 52.841l-2.334 2.333 1.65 1.65 2.333-2.333-1.65-1.65z" fill="#007AFF"/></svg>
